X: 25534
T: Marian's Favourite
R: reel
M: 4/4
K: Amajor
ce~e2 ecAc|BAcB AF~F2|ce~e2 fece|afea fecB|
ce~e2 ecAc|BAcB AF~F2|EFAB ceaf|1 ecBc A2AB:|2 ecBc A2ce|
ae~e2 aefa|f3a fecB|ABce a2ga|fbba bafg|
ae~e2 aefa|f3a fecB|ABce afec|1 BAGB A2ce:|2 BAGB A4||

